!!!OTL: 2160. Das Lied vom Sterben.
!!!ARE: Europa, Mitteleuropa, Deutschland, Mittel - Franken, Wuelflingen
!!!SCT: E2160
!!!TXL: @@DE
!!!YEM: Copyright 1995, estate of Helmut Schaffrath.
**kern	**text
*ICvox	*
*M4/4	*
*met(c)	*
*k[b-]	*
*F:	*
=1	=1
!LO:TX:a:t=Langsam.	!
!LO:TX:a:t=Aus Mittelfranken (Wülflingen).	!
{4.f	Ster-
8g	-ben
4a	iſt
4a	ein
=2	=2
(8aqq	.
4g)	har-
4g	-te
4f	Buß!
8r}	.
{16fL	Jch
16gJ	.
=3	=3
4a	weiß
4a	wohl,
4cc	daß
4cc	ich
=4	=4
8ccL	ſter-
8b-J	.
4b-	-ben
4a	muß.
8r}	.
{16fL	Und
16aJ	.
=5	=5
4cc	ſterb
8ccL	ich
8ffJ	.
4.dd	heut,
8cc	ſo
=6	=6
8.b-	bin
16a	ich
8.b-	mor-
16dd	-gen
4.cc}	todt,
{8b-	be-
=7	=7
4a	-gräbt
4a	man
8ccL	mich
8b-J	.
8b-L	mit
8aJ	.
=8	=8
4g	Rös-
4cc	-lein
4a	roth.
8r}	.
{16fL	Und
16aJ	.
=9	=9
4cc	ſterb
8ccL	ich
8ffJ	.
4.dd	heut,
8cc	ſo
=10	=10
8.b-	bin
16a	ich
8.b-	mor-
16dd	-gen
4.cc}	todt,
{8b-	be-
=11	=11
4a	-gräbt
4a	man
8ccL	mich
8b-J	.
8b-L	mit
8aJ	.
=12	=12
4g	Rös-
4cc	-lein
2a}	roth.
==	==
!!!AGN: geistlich, Moral - Lied, Tod
!!!ONB: ESAC (Essen Associative Code) Database: ERK3
!!!AMT: simple quadruple
!!!AIN: vox
!!!EED: Helmut Schaffrath
!!!EEV: 1.0
!!!GTL: 6. Lieder von den Letzten Dinen: Tod, Begraebniss, Auferstehung, Weltgericht, ewige Seligkeit.
!!!URL-scan: https://rosdok.uni-rostock.de/mcrviewer/recordIdentifier/rosdok_ppn745177999/iview2/phys_0860.iview2?x=188.9681574111819&y=2000.8876658142544&scale=0.7014306698522895&rotation=0&layout=singlePageLayout
!!!ENC: Anna Maria Matuszewska
!!!EEV: 2025/14/01
*-	*-
